assets/front/images/picto-billet.svg

<?xml version="1.0" encoding="UTF-8"?><svg id="a" xmlns="http://www.w3.org/2000/svg" viewBox="0 0 47.05 47.05"><defs><style>.b{fill:none;stroke:#000;stroke-miterlimit:8.22;stroke-width:.66px;}</style></defs><path d="m36.22,21.91l-14.31,14.32c-.39.39-.86.58-1.43.58s-1.04-.2-1.43-.58l-1.99-1.99c.59-.59.88-1.31.88-2.14s-.3-1.55-.88-2.14c-.59-.59-1.31-.89-2.14-.89s-1.55.3-2.14.89l-1.97-1.99c-.39-.39-.58-.86-.58-1.43s.2-1.04.58-1.43l14.31-14.29c.39-.39.86-.58,1.43-.58s1.04.2,1.43.58l1.97,1.97c-.59.59-.89,1.31-.89,2.14s.3,1.55.89,2.14,1.31.88,2.14.88,1.55-.3,2.14-.88l1.99,1.97c.39.39.58.86.58,1.43s-.2,1.04-.58,1.43m-14.02,10.05l9.75-9.75c.2-.2.3-.44.3-.71s-.1-.51-.3-.71l-5.71-5.71c-.19-.19-.43-.29-.71-.29s-.52.1-.71.29l-9.75,9.75c-.2.2-.3.44-.3.71s.1.51.3.71l5.71,5.71c.19.19.43.29.71.29s.52-.09.71-.29m3.33-15.44l4.99,4.99-9.02,9.02-4.99-4.99,9.02-9.02Z"/><path class="b" d="m46.72,23.52c0,12.81-10.39,23.2-23.2,23.2S.33,36.34.33,23.52,10.71.33,23.52.33s23.2,10.39,23.2,23.2Z"/></svg>

<?xml version="1.0" encoding="UTF-8" standalone="no"?>
<!DOCTYPE svg PUBLIC "-//W3C//DTD SVG 1.1//EN" "http://www.w3.org/Graphics/SVG/1.1/DTD/svg11.dtd">
<svg width="100%" height="100%" viewBox="0 0 256 256" version="1.1" xmlns="http://www.w3.org/2000/svg" xmlns:xlink="http://www.w3.org/1999/xlink" xml:space="preserve" xmlns:serif="http://www.serif.com/" style="fill-rule:evenodd;clip-rule:evenodd;stroke-linecap:round;stroke-linejoin:round;stroke-miterlimit:1.5;">
    <g transform="matrix(12.4028,0,0,12.1746,-237.914,-200.431)">
        <ellipse cx="29.502" cy="26.977" rx="9.836" ry="10.021" style="fill:none;stroke:black;stroke-width:0.68px;"/>
    </g>
    <g transform="matrix(4.51637,0,0,4.51637,21.7975,21.7524)">
        <path d="M36.22,21.91L21.91,36.23C21.52,36.62 21.05,36.81 20.48,36.81C19.91,36.81 19.44,36.61 19.05,36.23L17.06,34.24C17.65,33.65 17.94,32.93 17.94,32.1C17.94,31.27 17.64,30.55 17.06,29.96C16.47,29.37 15.75,29.07 14.92,29.07C14.09,29.07 13.37,29.37 12.78,29.96L10.81,27.97C10.42,27.58 10.23,27.11 10.23,26.54C10.23,25.97 10.43,25.5 10.81,25.11L25.12,10.82C25.51,10.43 25.98,10.24 26.55,10.24C27.12,10.24 27.59,10.44 27.98,10.82L29.95,12.79C29.36,13.38 29.06,14.1 29.06,14.93C29.06,15.76 29.36,16.48 29.95,17.07C30.54,17.66 31.26,17.95 32.09,17.95C32.92,17.95 33.64,17.65 34.23,17.07L36.22,19.04C36.61,19.43 36.8,19.9 36.8,20.47C36.8,21.04 36.6,21.51 36.22,21.9M22.2,31.95L31.95,22.2C32.15,22 32.25,21.76 32.25,21.49C32.25,21.22 32.15,20.98 31.95,20.78L26.24,15.07C26.05,14.88 25.81,14.78 25.53,14.78C25.25,14.78 25.01,14.88 24.82,15.07L15.07,24.82C14.87,25.02 14.77,25.26 14.77,25.53C14.77,25.8 14.87,26.04 15.07,26.24L20.78,31.95C20.97,32.14 21.21,32.24 21.49,32.24C21.77,32.24 22.01,32.15 22.2,31.95M25.53,16.51L30.52,21.5L21.5,30.52L16.51,25.53L25.53,16.51Z" style="fill-rule:nonzero;"/>
    </g>
</svg>
